assets/icons/24px/outline/arrow-thick-down-24px.svg

<svg width="24" height="24" viewBox="0 0 24 24" fill="none" xmlns="http://www.w3.org/2000/svg">
<path d="M9.17157 19.1716L7.75736 17.7574C6.89027 16.8903 6.45672 16.4567 6.22836 15.9054C6 15.3541 6 14.741 6 13.5147L6 4.41421C6 3.38675 6 2.87302 6.30866 2.74517C6.61731 2.61732 6.98058 2.98058 7.7071 3.70711L9.17157 5.17157C10.5049 6.50491 11.1716 7.17157 12 7.17157C12.8284 7.17157 13.4951 6.50491 14.8284 5.17157L16.2929 3.70711C17.0194 2.98058 17.3827 2.61732 17.6913 2.74517C18 2.87302 18 3.38675 18 4.41421L18 13.5147C18 14.741 18 15.3541 17.7716 15.9054C17.5433 16.4567 17.1097 16.8903 16.2426 17.7574L14.8284 19.1716C13.4951 20.5049 12.8284 21.1716 12 21.1716C11.1716 21.1716 10.5049 20.5049 9.17157 19.1716Z" stroke="white" stroke-width="2" stroke-linecap="round" stroke-linejoin="round"/>
</svg>

<svg width="24" height="24" fill="none" xmlns="http://www.w3.org/2000/svg"><path d="M9.172 19.172l-1.415-1.415c-.867-.867-1.3-1.3-1.529-1.852C6 15.355 6 14.741 6 13.515v-9.1c0-1.028 0-1.542.309-1.67.308-.128.672.236 1.398.962l1.465 1.465c1.333 1.333 2 2 2.828 2 .828 0 1.495-.667 2.828-2l1.465-1.465c.726-.726 1.09-1.09 1.398-.962.309.128.309.642.309 1.67v9.1c0 1.226 0 1.84-.228 2.39-.229.552-.662.985-1.53 1.852l-1.414 1.415c-1.333 1.333-2 2-2.828 2-.828 0-1.495-.667-2.828-2z" stroke="#fff" stroke-width="2" stroke-linecap="round" stroke-linejoin="round"/></svg>
